Obsidian-SemiLight/actions/22s/uniassociation.svg

<svg viewBox="0 0 22 22" xmlns="http://www.w3.org/2000/svg"><path d="m10.5 3-3.5 7 .8945312.447266 2.1054688-4.2109379v12.7636719h1v-12.7636719l2.105469 4.2109379.894531-.447266z" fill="#4d4d4d"/></svg>

<svg xmlns="http://www.w3.org/2000/svg" viewBox="0 0 22 22">
  <defs id="defs3051">
    <style type="text/css" id="current-color-scheme">
      .ColorScheme-Text {
        color:#4d4d4d;
      }
      </style>
  </defs>
 <path 
    style="fill:currentColor;fill-opacity:1;stroke:none" 
    d="M 10.5 3 L 7 10 L 7.8945312 10.447266 L 10 6.2363281 L 10 19 L 11 19 L 11 6.2363281 L 13.105469 10.447266 L 14 10 L 10.5 3 z "
	class="ColorScheme-Text"
    />  
</svg>
